**kern	**kern	**dynam
*part1	*part1	*part1
*staff2	*staff1	*
*I"Piano	*	*
*clefF4	*clefG2	*
*k[]	*k[]	*
=1	=1	=1
8EL	8AL 8c 8e	.
8D#XJ	8fJ	.
8EL	8AL 8c 8e	.
8D#	8f	.
8E	8A 8c 8e	.
8D#J)	8fJ)	[ mp
=	=	=
*	*^	*
(8EE^L 8E	(8e^L	[2.A [2.c	f >
8D#XJ	8fJ	.	.
8EL	8eL	.	.
8D#	8f	.	.
8E	8e	.	.
8D#J	8fJ	.	.
=	=	=	=
8EL	8eL	2.A] 2.c]	.
8D#XJ	8fJ	.	.
8EL	8eL	.	.
8D#	8f	.	.
8E	8e	.	.
8D#J)	8fJ)	.	] p
=	=	=	=
*^	*	*	*
(8E^^L	[2.AAA	(8eL	[2.A [2.c	mf >
8D#X	.	8f	.	.
8E	.	8e	.	.
8D#J	.	8fJ	.	.
8EL	.	8eL	.	.
8D#J	.	8fJ	.	.
=	=	=	=	=
8EL	2.AAA]	8eL	2.A] 2.c]	.
8D#X	.	8f	.	.
8E	.	8e	.	.
8D#J	.	8fJ	.	.
8EL	.	8eL	.	.
8D#J)	.	8fJ)	.	.
*	*	*v	*v	*
=	=	=	=
(8EL	[2.AA	(8eL	] pp
8D#X	.	8f	.
8E	.	8e	.
8D#J	.	8fJ	.
8EL	.	8eL	.
8D#J	.	8fJ	.
=	=	=	=
8EL	2.AA]	8eL	.
8D#X	.	8f	.
8E	.	8e	.
8D#J	.	8fJ	.
8EL	.	8eL	.
8D#J)	.	8fJ)	.
*v	*v	*	*
=	=	=
*-	*-	*-
!!!system-decoration: {(s1,s2)}
